X:1
T:Rigadoon by Philpot
M:6/8
L:1/8
R:Country Dance
B:Neil Stewart – “Select Collection of Scots, English, Irish and Foreign
B:Airs, Jiggs & Marches” (1784, pp. 16-17)
Z:AK/Fiddler’s Companion
K:D
A|d3Te3|fed agf|efd cBe|{B}(A3 A2):||:A|dAd de=c|
{c}(B3 B2)B|eBe efd|{d}(c3c2) (a/g/)|fed Adc|{c}(ded2):|

